X:1
T:Blaydon, SM
T:Blaydon, SM
T:Henry Walmsey Little (1853–1913)
T:Public Domain Courtesy of the Cyber Hymnal™
C:Henry Walmsey Little (1853–1913)
Z:Public Domain
Z:Courtesy of the Cyber Hymnal™
%%score ( 1 2 ) ( 3 4 )
L:1/8
Q:1/4=110
M:4/4
K:G
V:1 treble 
V:2 treble 
V:3 bass 
V:4 bass 
V:1
 D2 | [DG]2 [GB]2 [Ad]2 [Gc]2 | ([GB]4 [FA]2) [FB]2 | [EG]2 [EG]2 [EB]2 [EA]2 | G4 F2 D2 | %5
 [DG]2 [GB]2 [Ad]2 [Gc]2 | [GB]2 [FA]2 G2 [Ge]2 | [Gd]2 G2 [GA]2 [FB]2 | ([FA]4 G2) |] %9
V:2
 D2 | x8 | x8 | x8 | D6 D2 | x8 | x4 G2 x2 | x2 G2 x4 | x4 G2 |] %9
V:3
 [G,B,]2 | [G,B,]2 [G,D]2 [G,F]2 [G,E]2 | D6 [D,D]2 | [E,B,]2 [D,B,]2 [C,D]2 [C,C]2 | %4
 B,4 A,2 [A,C]2 | [G,B,]2 [G,D]2 [G,F]2 [G,E]2 | [G,D]2 [D,C]2 [E,B,]2 [C,A,]2 | %7
 [D,B,]2 [E,^C]2 [D,D]2 [D,D]2 | (C4 B,2) |] %9
V:4
 x2 | x8 | (G,4 D,2) x2 | x8 | D,6 x2 | x8 | x8 | x8 | G,6 |] %9

